Adwaita++/apps/symbolic/affinity-designer-symbolic.svg

<svg fill="none" height="16" viewBox="0 0 16 16" width="16" xmlns="http://www.w3.org/2000/svg">
  <path clip-rule="evenodd" d="m6.29737 1-1.22126 2.06395.5104.8671-2.45592 4.26966-1.51811.89646-1.61248 2.70093 1.27533 2.1431.4462-.0257.37921.6626 12.52406.0036 1.3752-2.2437-6.26583-10.94678-.76891.01451-.17635-.35213zm4.71783 4.46048-2.05989-3.54967-2.0464 3.54967zm.176.30331h-4.45726l-1.28857 2.23498 2.50903 4.29653 7.051.0411zm-4.56411 4.90831-1.37029-2.34636-1.35264 2.34636zm.17702.3034h-3.07481l-1.46978 2.5493 6.05134.0309z" fill="#474747" fill-rule="evenodd"/>
</svg>

<svg xmlns="http://www.w3.org/2000/svg" fill="none" width="16" height="16" version="1.1" viewBox="0 0 16 16">
 <defs>
  <style id="current-color-scheme" type="text/css">
   .ColorScheme-Text { color:#444; } .ColorScheme-Highlight { color:#5294e2; }
  </style>
 </defs>
 <path fill="currentColor" fill-rule="evenodd" class="ColorScheme-Text" d="M6.29737 1L5.07611 3.06395L5.58651 3.93105L3.13059 8.20071L1.61248 9.09717L0 11.7981L1.27533 13.9412L1.72153 13.9155L2.10074 14.5781L14.6248 14.5817L16 12.338L9.73417 1.39122L8.96526 1.40573L8.78891 1.0536L6.29737 1ZM11.0152 5.46048L8.95531 1.91081L6.90891 5.46048H11.0152ZM11.1912 5.76379H6.73394L5.44537 7.99877L7.9544 12.2953L15.0054 12.3364L11.1912 5.76379ZM6.62709 10.6721L5.2568 8.32574L3.90416 10.6721H6.62709ZM6.80411 10.9755H3.7293L2.25952 13.5248L8.31086 13.5557L6.80411 10.9755Z" clip-rule="evenodd"/>
</svg>
